X:1
T:Here Is Joy for Every Age
T:Here Is Joy for Every Age
T:Thomas Helmore (1811-1890)
T:John Mason Neale (1818-1866)
T:Public Domain Courtesy of the Cyber Hymnal™
C:Thomas Helmore (1811-1890)
Z:Public Domain
Z:Courtesy of the Cyber Hymnal™
%%score ( 1 2 ) 3
L:1/8
Q:1/4=115
M:4/4
K:C
V:1 treble 
V:2 treble 
V:3 bass 
V:1
 [EG]2"^Animato" [CG]2 [FA]2 [GB]2 | [Gc]2 [GB]2 [FA]4 | [GB]2 [EG]2 [EA]2 [CF]2 | [EG]4 [DG]4 | %4
w: 1.~Here is joy for|ev- ery age,|Ev- ery gen- er-|a- tion;|
w: 2.~When the world drew|near its close,|Came our Lord and|Sav- ior;|
w: 3.~God, that came on|earth this morn,|In a man- ger|ly- ing,|
 [EG]2 [CG]2 [FA]2 [GB]2 | [Gc]2 [GB]2 [FA]4 | [GB]2 [EG]2 [EA]2 [CF]2 | [EG]4 [DG]4 | %8
w: Prince and pea- sant,|chief and sage,|Ev- ery tongue and|na- tion;|
w: From the Li- ly|sprang the Rose,|From the Bush the|Ce- dar;|
w: Hal- lowed birth by|be- ing born,|Van- quished death by|dy- ing;|
 [GB]2 [GB]2 [Gc]2 [Fc]2 | [Gd]4 [Fd]4 | [Gd]2 [Ge]2 [Fd]2 [Ec]2 | [Gd]4 [GB]4 | %12
w: Ev- ery tongue and|na- tion,|Ev- ery rank and|sta- tion,|
w: From the Bush the|Ce- dar,|From the judged the|Plead- er,|
w: Van- quished death by|dy- ing,|Ral- lied back the|fly- ing,|
 [GB]2 [GB]2 [Gc]2 [EB]2 | [EA]4 [^GB]4 |"^rall." [GB]2 [EG]2 ([EA]2 [CF]2) | G8 |] %16
w: Hath to- day sal-|va- tion:|Al- le- lu- *|ia!|
w: From the faint the|Feed- er:|Al- le- lu- *|ia!|
w: End- ed sin and|sigh- ing:|Al- le- lu- *|ia!|
V:2
 x8 | x8 | x8 | x8 | x8 | x8 | x8 | x8 | x8 | x8 | x8 | x8 | x8 | x8 | x8 | E4 D4 |] %16
V:3
 [C,C]2 [E,C]2 [F,C]2 [F,D]2 | [E,C]2 [E,C]2 [F,C]4 | [E,G,]2 [G,B,]2 [C,C]2 [F,A,]2 | %3
 [C,C]4 [G,,B,]4 | [C,C]2 [E,C]2 [F,C]2 [F,D]2 | [E,C]2 [E,C]2 [F,C]4 | %6
 [E,G,]2 [G,B,]2 [C,C]2 [F,A,]2 | [C,C]4 [G,,B,]4 | [G,D]2 [F,D]2 [E,C]2 [C,E]2 | %9
 [G,,B,]4 [D,A,]4 | [G,B,]2 [C,C]2 [B,,G,]2 [C,G,]2 | [G,,B,]4 [G,,D]4 | %12
 [G,D]2 [G,D]2 [E,C]2 [^G,D]2 | [A,C]4 [E,E]4 | [E,C]2 [G,B,]2 ([C,C]2 [F,A,]2) | %15
 ([C,C]4 [G,,B,]4) |] %16

